assets/icons/18px/outline/night-18px.svg

<svg width="18" height="18" viewBox="0 0 18 18" fill="none" xmlns="http://www.w3.org/2000/svg">
<path d="M10.7245 11.529L10.3579 11.1889L10.3579 11.1889L10.7245 11.529ZM6.43773 7.24222L6.77776 7.6088L6.77776 7.6088L6.43773 7.24222ZM6.63877 7.07131L6.33171 6.6767L6.63877 7.07131ZM11.0526 11.1061L11.4731 11.3767L11.0526 11.1061ZM10.6322 10.8355C10.5512 10.9613 10.4593 11.0796 10.3579 11.1889L11.0911 11.869C11.2322 11.7168 11.3602 11.5521 11.4731 11.3767L10.6322 10.8355ZM10.3579 11.1889C9.89454 11.6885 9.23404 12 8.50002 12V13C9.52376 13 10.4464 12.564 11.0911 11.869L10.3579 11.1889ZM8.50002 12C7.1009 12 5.96669 10.8658 5.96669 9.46666H4.96669C4.96669 11.4181 6.54862 13 8.50002 13V12ZM5.96669 9.46666C5.96669 8.73264 6.27822 8.07214 6.77776 7.6088L6.09771 6.87563C5.40272 7.52027 4.96669 8.44293 4.96669 9.46666H5.96669ZM6.77776 7.6088C6.83167 7.5588 6.88775 7.51112 6.94583 7.46592L6.33171 6.6767C6.25082 6.73965 6.17275 6.80604 6.09771 6.87563L6.77776 7.6088ZM3.16669 11.1667C3.16669 9.17925 4.67951 7.54456 6.61609 7.35229L6.51729 6.35718C4.07431 6.59973 2.16669 8.66012 2.16669 11.1667H3.16669ZM7.00002 15C4.88293 15 3.16669 13.2838 3.16669 11.1667H2.16669C2.16669 13.836 4.33064 16 7.00002 16V15ZM10.8334 11.1667C10.8334 13.2838 9.11711 15 7.00002 15V16C9.6694 16 11.8334 13.836 11.8334 11.1667H10.8334ZM6.94583 7.46592C7.18038 7.28341 7.22664 6.99624 7.15653 6.7786C7.08339 6.55155 6.85239 6.32391 6.51729 6.35718L6.61609 7.35229C6.39681 7.37406 6.24778 7.21896 6.2047 7.08521C6.16464 6.96086 6.18903 6.78773 6.33171 6.6767L6.94583 7.46592ZM11.4731 11.3767C11.3852 11.5132 11.2347 11.5489 11.1229 11.5261C11.0635 11.5141 10.9922 11.4824 10.9319 11.4166C10.8668 11.3456 10.8334 11.2543 10.8334 11.1667H11.8334C11.8334 10.8093 11.566 10.5957 11.322 10.5462C11.0894 10.4989 10.7986 10.5769 10.6322 10.8355L11.4731 11.3767Z" fill="white"/>
<path d="M14 5.5V8.5M12.5 7H15.5" stroke="white" stroke-linecap="round" stroke-linejoin="round"/>
<path d="M9.5 2.5L9.5 3.5M9.5 3.5L9.5 4.5M9.5 3.5H8.5M9.5 3.5H10.5" stroke="white" stroke-linecap="round" stroke-linejoin="round"/>
</svg>

<svg width="18" height="18" fill="none" xmlns="http://www.w3.org/2000/svg"><path d="M10.725 11.529l-.367-.34.367.34zM6.438 7.242l.34.367-.34-.367zm.2-.17l-.306-.395.307.394zm4.415 4.034l.42.27-.42-.27zm-.42-.27a2.548 2.548 0 0 1-.275.353l.733.68c.141-.152.27-.317.382-.492l-.84-.542zm-.275.353c-.463.5-1.124.811-1.858.811v1a3.525 3.525 0 0 0 2.591-1.131l-.733-.68zM8.5 12a2.533 2.533 0 0 1-2.533-2.533h-1A3.533 3.533 0 0 0 8.5 13v-1zM5.967 9.467c0-.734.311-1.395.81-1.858l-.68-.733a3.525 3.525 0 0 0-1.13 2.59h1zm.81-1.858c.055-.05.11-.098.169-.143l-.614-.79c-.081.064-.16.13-.234.2l.68.733zm-3.61 3.558a3.834 3.834 0 0 1 3.45-3.815l-.1-.995a4.834 4.834 0 0 0-4.35 4.81h1zM7 15a3.833 3.833 0 0 1-3.833-3.833h-1A4.833 4.833 0 0 0 7 16v-1zm3.833-3.833A3.833 3.833 0 0 1 7 15v1a4.833 4.833 0 0 0 4.833-4.833h-1zM6.946 7.466a.626.626 0 0 0 .21-.687.606.606 0 0 0-.639-.422l.1.995a.394.394 0 0 1-.412-.267.374.374 0 0 1 .127-.408l.614.789zm4.527 3.91a.338.338 0 0 1-.541.04.373.373 0 0 1-.099-.25h1a.63.63 0 0 0-.511-.62.662.662 0 0 0-.69.29l.841.54z" fill="#fff"/><path d="M14 5.5v3M12.5 7h3m-6-4.5v1m0 0v1m0-1h-1m1 0h1" stroke="#fff" stroke-linecap="round" stroke-linejoin="round"/></svg>
